resources/icons/svg/dmxdump.svg

<?xml version="1.0" encoding="UTF-8" standalone="no"?>
<!-- Created with Inkscape (http://www.inkscape.org/) -->

<svg
   xmlns:dc="http://purl.org/dc/elements/1.1/"
   xmlns:cc="http://creativecommons.org/ns#"
   xmlns:rdf="http://www.w3.org/1999/02/22-rdf-syntax-ns#"
   xmlns:svg="http://www.w3.org/2000/svg"
   xmlns="http://www.w3.org/2000/svg"
   xmlns:xlink="http://www.w3.org/1999/xlink"
   xmlns:sodipodi="http://sodipodi.sourceforge.net/DTD/sodipodi-0.dtd"
   xmlns:inkscape="http://www.inkscape.org/namespaces/inkscape"
   id="svg3055"
   version="1.1"
   inkscape:version="0.48.4 r9939"
   width="48"
   height="48"
   sodipodi:docname="dmxdump.svg">
  <metadata
     id="metadata3061">
    <rdf:RDF>
      <cc:Work
         rdf:about="">
        <dc:format>image/svg+xml</dc:format>
        <dc:type
           rdf:resource="http://purl.org/dc/dcmitype/StillImage" />
        <dc:title />
      </cc:Work>
    </rdf:RDF>
  </metadata>
  <defs
     id="defs3059">
    <linearGradient
       id="linearGradient3935">
      <stop
         id="stop3937"
         offset="0"
         style="stop-color:#eea41c;stop-opacity:1;" />
      <stop
         style="stop-color:#cdbb0b;stop-opacity:1;"
         offset="1"
         id="stop3939" />
    </linearGradient>
    <linearGradient
       id="linearGradient3912">
      <stop
         id="stop3914"
         offset="0"
         style="stop-color:#1c23ff;stop-opacity:1;" />
      <stop
         style="stop-color:#00006b;stop-opacity:1;"
         offset="1"
         id="stop3916" />
    </linearGradient>
    <linearGradient
       id="linearGradient3889">
      <stop
         id="stop3891"
         offset="0"
         style="stop-color:#3cd33c;stop-opacity:1;" />
      <stop
         style="stop-color:#004600;stop-opacity:1;"
         offset="1"
         id="stop3893" />
    </linearGradient>
    <linearGradient
       id="linearGradient3841">
      <stop
         style="stop-color:#d83c3c;stop-opacity:1;"
         offset="0"
         id="stop3843" />
      <stop
         id="stop3849"
         offset="1"
         style="stop-color:#460000;stop-opacity:1;" />
    </linearGradient>
    <linearGradient
       inkscape:collect="always"
       xlink:href="#linearGradient3841"
       id="linearGradient3853"
       x1="3.6863465"
       y1="3.5973105"
       x2="16.832825"
       y2="16.189661"
       gradientUnits="userSpaceOnUse"
       gradientTransform="matrix(1.3963046,0,0,1.3596871,-2.2334751,5.975232)" />
    <linearGradient
       y2="15.945148"
       x2="2.358077"
       y1="3.0471599"
       x1="16.817446"
       gradientTransform="matrix(1.3963048,0,0,1.3596873,17.443794,5.9752321)"
       gradientUnits="userSpaceOnUse"
       id="linearGradient3870"
       xlink:href="#linearGradient3889"
       inkscape:collect="always" />
    <linearGradient
       y2="2.6803923"
       x2="16.8939"
       y1="16.067404"
       x1="2.9534478"
       gradientTransform="matrix(1.3902143,0,0,1.3598331,-2.2164218,24.069857)"
       gradientUnits="userSpaceOnUse"
       id="linearGradient3870-8"
       xlink:href="#linearGradient3912"
       inkscape:collect="always" />
    <linearGradient
       y2="2.4970086"
       x2="2.6634512"
       y1="16.128532"
       x1="16.878523"
       gradientTransform="matrix(1.3963046,0,0,1.3596873,17.443795,24.155132)"
       gradientUnits="userSpaceOnUse"
       id="linearGradient3870-7"
       xlink:href="#linearGradient3935"
       inkscape:collect="always" />
    <radialGradient
       inkscape:collect="always"
       xlink:href="#linearGradient8650"
       id="radialGradient7994"
       cx="16.620785"
       cy="-29.734715"
       fx="16.620785"
       fy="-29.734715"
       r="16.5"
       gradientTransform="matrix(-1.6363947,-4.8713254e-4,-1.9599535e-4,0.83119826,88.83762,55.357061)"
       gradientUnits="userSpaceOnUse" />
    <linearGradient
       id="linearGradient8650"
       inkscape:collect="always">
      <stop
         id="stop8652"
         offset="0"
         style="stop-color:#ffffff;stop-opacity:1;" />
      <stop
         id="stop8654"
         offset="1"
         style="stop-color:#ffffff;stop-opacity:0;" />
    </linearGradient>
    <radialGradient
       inkscape:collect="always"
       xlink:href="#linearGradient2309"
       id="radialGradient11961"
       cx="13.904816"
       cy="36.435665"
       fx="13.904816"
       fy="36.435665"
       r="16.505941"
       gradientTransform="matrix(0.74588011,-0.00433695,0.00282431,0.71785399,55.469128,11.02925)"
       gradientUnits="userSpaceOnUse" />
    <linearGradient
       id="linearGradient2309">
      <stop
         id="stop2311"
         offset="0"
         style="stop-color:#73d216" />
      <stop
         id="stop2313"
         offset="1.0000000"
         style="stop-color:#4e9a06" />
    </linearGradient>
    <radialGradient
       inkscape:collect="always"
       xlink:href="#linearGradient8650"
       id="radialGradient10491"
       gradientUnits="userSpaceOnUse"
       gradientTransform="matrix(0,1.8558949,1.162175,0,57.808112,-19.208803)"
       cx="15.987216"
       cy="1.5350308"
       fx="15.987216"
       fy="1.5350308"
       r="17.171415" />
    <radialGradient
       inkscape:collect="always"
       xlink:href="#linearGradient2309"
       id="radialGradient1441"
       gradientUnits="userSpaceOnUse"
       gradientTransform="matrix(0,0.76441982,-0.76117497,0,90.250165,2.8684744)"
       cx="34.663586"
       cy="20.321211"
       fx="34.663586"
       fy="20.321211"
       r="16.9562" />
    <linearGradient
       id="linearGradient3028">
      <stop
         id="stop3030"
         offset="0"
         style="stop-color:#73d216" />
      <stop
         id="stop3032"
         offset="1.0000000"
         style="stop-color:#4e9a06" />
    </linearGradient>
    <radialGradient
       inkscape:collect="always"
       xlink:href="#linearGradient8662"
       id="radialGradient1444"
       gradientUnits="userSpaceOnUse"
       gradientTransform="matrix(1,0,0,0.536723,0,16.87306)"
       cx="24.837126"
       cy="36.421127"
       fx="24.837126"
       fy="36.421127"
       r="15.644737" />
    <linearGradient
       id="linearGradient8662"
       inkscape:collect="always">
      <stop
         id="stop8664"
         offset="0"
         style="stop-color:#000000;stop-opacity:1;" />
      <stop
         id="stop8666"
         offset="1"
         style="stop-color:#000000;stop-opacity:0;" />
    </linearGradient>
    <radialGradient
       r="15.644737"
       fy="36.421127"
       fx="24.837126"
       cy="36.421127"
       cx="24.837126"
       gradientTransform="matrix(1,0,0,0.536723,0,16.87306)"
       gradientUnits="userSpaceOnUse"
       id="radialGradient3044"
       xlink:href="#linearGradient8662"
       inkscape:collect="always" />
    <radialGradient
       inkscape:collect="always"
       xlink:href="#linearGradient8650-8"
       id="radialGradient7994-5"
       cx="16.620785"
       cy="-29.734715"
       fx="16.620785"
       fy="-29.734715"
       r="16.5"
       gradientTransform="matrix(-1.7460863,-4.8674368e-4,-2.0913341e-4,0.83053474,49.710416,50.446237)"
       gradientUnits="userSpaceOnUse" />
    <linearGradient
       id="linearGradient8650-8"
       inkscape:collect="always">
      <stop
         id="stop8652-4"
         offset="0"
         style="stop-color:#ffffff;stop-opacity:1;" />
      <stop
         id="stop8654-6"
         offset="1"
         style="stop-color:#ffffff;stop-opacity:0;" />
    </linearGradient>
    <radialGradient
       inkscape:collect="always"
       xlink:href="#linearGradient2309-0"
       id="radialGradient11961-3"
       cx="13.904816"
       cy="36.435665"
       fx="13.904816"
       fy="36.435665"
       r="16.505941"
       gradientTransform="matrix(0.79587832,-0.00433349,0.00301363,0.71728096,14.105151,6.1538111)"
       gradientUnits="userSpaceOnUse" />
    <linearGradient
       id="linearGradient2309-0">
      <stop
         id="stop2311-2"
         offset="0"
         style="stop-color:#73d216" />
      <stop
         id="stop2313-2"
         offset="1.0000000"
         style="stop-color:#4e9a06" />
    </linearGradient>
    <radialGradient
       inkscape:collect="always"
       xlink:href="#linearGradient8650-8"
       id="radialGradient10491-4"
       gradientUnits="userSpaceOnUse"
       gradientTransform="matrix(0,1.8544134,1.2400785,0,16.600923,-24.060104)"
       cx="15.987216"
       cy="1.5350308"
       fx="15.987216"
       fy="1.5350308"
       r="17.171415" />
    <radialGradient
       inkscape:collect="always"
       xlink:href="#linearGradient2309-0"
       id="radialGradient1441-0"
       gradientUnits="userSpaceOnUse"
       gradientTransform="matrix(0,0.76441982,-0.76117497,0,90.250165,2.8684744)"
       cx="34.663586"
       cy="20.321211"
       fx="34.663586"
       fy="20.321211"
       r="16.9562" />
    <linearGradient
       id="linearGradient3973">
      <stop
         id="stop3975"
         offset="0"
         style="stop-color:#73d216" />
      <stop
         id="stop3977"
         offset="1.0000000"
         style="stop-color:#4e9a06" />
    </linearGradient>
    <radialGradient
       r="16.9562"
       fy="20.321211"
       fx="34.663586"
       cy="20.321211"
       cx="34.663586"
       gradientTransform="matrix(0,0.76380961,-0.81219843,0,51.217648,-2.0004501)"
       gradientUnits="userSpaceOnUse"
       id="radialGradient3984"
       xlink:href="#linearGradient2309-0"
       inkscape:collect="always" />
  </defs>
  <sodipodi:namedview
     pagecolor="#ffffff"
     bordercolor="#666666"
     borderopacity="1"
     objecttolerance="10"
     gridtolerance="10"
     guidetolerance="10"
     inkscape:pageopacity="0"
     inkscape:pageshadow="2"
     inkscape:window-width="1366"
     inkscape:window-height="698"
     id="namedview3057"
     showgrid="false"
     inkscape:zoom="5.7894368"
     inkscape:cx="12.6017"
     inkscape:cy="14.489354"
     inkscape:window-x="-4"
     inkscape:window-y="-4"
     inkscape:window-maximized="1"
     inkscape:current-layer="svg3055"
     fit-margin-top="0"
     fit-margin-left="0"
     fit-margin-right="0"
     fit-margin-bottom="0" />
  <rect
     style="fill:#0a0a0a;fill-opacity:1;stroke:#000000;stroke-width:1.37371051;stroke-opacity:1"
     id="rect3065"
     width="39.093075"
     height="36.240795"
     x="1.8146745"
     y="9.902976"
     rx="2.747421"
     ry="2.747421" />
  <rect
     style="fill:url(#linearGradient3853);fill-opacity:1;stroke:#000000;stroke-width:0.90839523;stroke-miterlimit:4;stroke-opacity:1;stroke-dasharray:none"
     id="rect3835"
     width="19.193544"
     height="18.025927"
     x="1.8983064"
     y="9.9156265"
     rx="3.5919344"
     ry="3.4523337" />
  <rect
     style="fill:url(#linearGradient3870);fill-opacity:1;stroke:#000000;stroke-width:0.90839523;stroke-miterlimit:4;stroke-opacity:1;stroke-dasharray:none"
     id="rect3835-0"
     width="19.193544"
     height="18.025927"
     x="21.575575"
     y="9.9156265"
     rx="3.5919347"
     ry="3.4523337" />
  <rect
     style="fill:url(#linearGradient3870-8);fill-opacity:1;stroke:#000000;stroke-width:0.90646052;stroke-miterlimit:4;stroke-opacity:1;stroke-dasharray:none"
     id="rect3835-7"
     width="19.109821"
     height="18.027859"
     x="1.8973398"
     y="28.010666"
     rx="3.576267"
     ry="3.4527037" />
  <rect
     style="fill:url(#linearGradient3870-7);fill-opacity:1;stroke:#000000;stroke-width:0.90839523;stroke-miterlimit:4;stroke-opacity:1;stroke-dasharray:none"
     id="rect3835-76"
     width="19.193544"
     height="18.025927"
     x="21.575575"
     y="28.095528"
     rx="3.5919347"
     ry="3.4523342" />
  <g
     inkscape:groupmode="layer"
     id="layer1"
     inkscape:label="bg" />
  <g
     inkscape:groupmode="layer"
     id="layer2"
     inkscape:label="arrow">
    <path
       inkscape:connector-curvature="0"
       style="color:#000000;fill:url(#radialGradient3984);fill-opacity:1;fill-rule:evenodd;stroke:#3b7502;stroke-width:0.84931439;stroke-linecap:round;stroke-linejoin:round;stroke-miterlimit:10;stroke-opacity:1;stroke-dasharray:none;stroke-dashoffset:0;marker:none;visibility:visible;display:inline;overflow:visible"
       d="m 46.52553,35.225141 0,-5.43279 -12.041645,0 12.016765,-16.312112 -6.344255,-0.05662 0,-11.7218608 -14.305674,0 0,11.7218608 -6.394014,0 12.240681,16.368739 -12.239171,0 0,5.43279 27.067313,0 z"
       id="path10479"
       sodipodi:nodetypes="ccccccccccccc" />
    <path
       inkscape:connector-curvature="0"
       sodipodi:nodetypes="cccccc"
       id="path8645"
       d="m 20.331405,13.938461 5.896538,-0.01062 -0.0021,-11.7719985 12.243512,0.00829 C 37.856368,18.781764 29.932586,12.124275 26.223354,21.777024 L 20.33142,13.938461 z"
       style="opacity:0.5080214;color:#000000;fill:url(#radialGradient10491-4);fill-opacity:1;fill-rule:evenodd;stroke:none;stroke-width:1;marker:none;visibility:visible;display:inline;overflow:visible" />
    <path
       inkscape:connector-curvature="0"
       style="opacity:0.48128339;color:#000000;fill:none;stroke:#ffffff;stroke-width:0.84931439;stroke-linecap:butt;stroke-linejoin:miter;stroke-miterlimit:10;stroke-opacity:1;stroke-dasharray:none;stroke-dashoffset:0;marker:none;visibility:visible;display:inline;overflow:visible"
       d="m 39.384017,2.6077894 -12.746494,0 0,11.7720996 -5.43852,0 11.510511,15.407068 0.726359,0.01108 11.32145,-15.377404 -5.41239,-0.06006 0.03909,-11.7527806 z"
       id="path10496"
       sodipodi:nodetypes="ccccccccc" />
    <rect
       style="opacity:0.481;fill:url(#radialGradient11961-3);fill-opacity:1;fill-rule:evenodd;stroke:#ffffff;stroke-width:0.84931439;stroke-linecap:butt;stroke-linejoin:miter;stroke-miterlimit:4;stroke-opacity:1;stroke-dasharray:none;stroke-dashoffset:0"
       id="rect2163"
       width="25.477848"
       height="3.6327279"
       x="20.252731"
       y="30.694956" />
    <path
       inkscape:connector-curvature="0"
       style="opacity:0.17613639;fill:url(#radialGradient7994-5);fill-opacity:1;fill-rule:evenodd;stroke:none"
       d="M 46.127459,33.672031 C 36.525463,29.999723 22.71888,34.849056 19.872371,32.538162 l 0.0124,-2.271059 26.24269,-0.02103 0,3.425955 z"
       id="path5072"
       sodipodi:nodetypes="ccccc" />
  </g>
</svg>

<svg xmlns="http://www.w3.org/2000/svg" xmlns:xlink="http://www.w3.org/1999/xlink" width="48" height="48">
  <defs>
    <linearGradient id="d">
      <stop offset="0" stop-color="#eea41c"/>
      <stop offset="1" stop-color="#cdbb0b"/>
    </linearGradient>
    <linearGradient id="c">
      <stop offset="0" stop-color="#1c23ff"/>
      <stop offset="1" stop-color="#00006b"/>
    </linearGradient>
    <linearGradient id="b">
      <stop offset="0" stop-color="#3cd33c"/>
      <stop offset="1" stop-color="#004600"/>
    </linearGradient>
    <linearGradient id="a">
      <stop offset="0" stop-color="#d83c3c"/>
      <stop offset="1" stop-color="#460000"/>
    </linearGradient>
    <linearGradient xlink:href="#a" id="j" x1="3.686" y1="3.597" x2="16.833" y2="16.19" gradientUnits="userSpaceOnUse" gradientTransform="matrix(1.3963 0 0 1.35969 -2.233 5.975)"/>
    <linearGradient y2="15.945" x2="2.358" y1="3.047" x1="16.817" gradientTransform="matrix(1.3963 0 0 1.35969 17.444 5.975)" gradientUnits="userSpaceOnUse" id="k" xlink:href="#b"/>
    <linearGradient y2="2.68" x2="16.894" y1="16.067" x1="2.953" gradientTransform="matrix(1.39021 0 0 1.35983 -2.216 24.07)" gradientUnits="userSpaceOnUse" id="l" xlink:href="#c"/>
    <linearGradient y2="2.497" x2="2.663" y1="16.129" x1="16.879" gradientTransform="matrix(1.3963 0 0 1.35969 17.444 24.155)" gradientUnits="userSpaceOnUse" id="m" xlink:href="#d"/>
    <linearGradient id="e">
      <stop offset="0" stop-color="#fff"/>
      <stop offset="1" stop-color="#fff" stop-opacity="0"/>
    </linearGradient>
    <linearGradient id="f">
      <stop offset="0" stop-color="#73d216"/>
      <stop offset="1" stop-color="#4e9a06"/>
    </linearGradient>
    <linearGradient id="g">
      <stop offset="0"/>
      <stop offset="1" stop-opacity="0"/>
    </linearGradient>
    <radialGradient xlink:href="#h" id="q" cx="16.621" cy="-29.735" fx="16.621" fy="-29.735" r="16.5" gradientTransform="matrix(-1.74609 -.00049 -.0002 .83053 49.71 50.446)" gradientUnits="userSpaceOnUse"/>
    <linearGradient id="h">
      <stop offset="0" stop-color="#fff"/>
      <stop offset="1" stop-color="#fff" stop-opacity="0"/>
    </linearGradient>
    <radialGradient xlink:href="#i" id="p" cx="13.905" cy="36.436" fx="13.905" fy="36.436" r="16.506" gradientTransform="matrix(.79588 -.00433 .00301 .71728 14.105 6.154)" gradientUnits="userSpaceOnUse"/>
    <linearGradient id="i">
      <stop offset="0" stop-color="#73d216"/>
      <stop offset="1" stop-color="#4e9a06"/>
    </linearGradient>
    <radialGradient xlink:href="#h" id="o" gradientUnits="userSpaceOnUse" gradientTransform="matrix(0 1.85441 1.24008 0 16.6 -24.06)" cx="15.987" cy="1.535" fx="15.987" fy="1.535" r="17.171"/>
    <radialGradient r="16.956" fy="20.321" fx="34.664" cy="20.321" cx="34.664" gradientTransform="matrix(0 .76381 -.8122 0 51.218 -2)" gradientUnits="userSpaceOnUse" id="n" xlink:href="#i"/>
  </defs>
  <rect width="39.093" height="36.241" x="1.815" y="9.903" rx="2.747" ry="2.747" fill="#0a0a0a" stroke="#000" stroke-width="1.374"/>
  <rect width="19.194" height="18.026" x="1.898" y="9.916" rx="3.592" ry="3.452" fill="url(#j)" stroke="#000" stroke-width=".908"/>
  <rect width="19.194" height="18.026" x="21.576" y="9.916" rx="3.592" ry="3.452" fill="url(#k)" stroke="#000" stroke-width=".908"/>
  <rect width="19.11" height="18.028" x="1.897" y="28.011" rx="3.576" ry="3.453" fill="url(#l)" stroke="#000" stroke-width=".906"/>
  <rect width="19.194" height="18.026" x="21.576" y="28.096" rx="3.592" ry="3.452" fill="url(#m)" stroke="#000" stroke-width=".908"/>
  <path style="marker:none" d="M46.526 35.225v-5.433H34.484L46.5 13.48l-6.345-.056V1.702H25.851v11.722h-6.394l12.24 16.368H19.458v5.433h27.068z" color="#000" fill="url(#n)" fill-rule="evenodd" stroke="#3b7502" stroke-width=".849" stroke-linecap="round" stroke-linejoin="round" stroke-miterlimit="10" overflow="visible"/>
  <path d="M20.331 13.938l5.897-.01-.002-11.772 12.243.008c-.613 16.618-8.536 9.96-12.246 19.613l-5.892-7.839z" style="marker:none" opacity=".508" color="#000" fill="url(#o)" fill-rule="evenodd" overflow="visible"/>
  <path style="marker:none" d="M39.384 2.608H26.638V14.38h-5.439l11.51 15.407.727.011 11.321-15.377-5.412-.06.039-11.753z" opacity=".481" color="#000" fill="none" stroke="#fff" stroke-width=".849" stroke-miterlimit="10" overflow="visible"/>
  <path opacity=".481" fill="url(#p)" fill-rule="evenodd" stroke="#fff" stroke-width=".849" d="M20.253 30.695h25.478v3.633H20.253z"/>
  <path d="M46.127 33.672C36.525 30 22.72 34.849 19.872 32.538l.013-2.27 26.242-.022v3.426z" opacity=".176" fill="url(#q)" fill-rule="evenodd"/>
</svg>
